sicko-zoomer.svg

<svg height="60pt" viewBox="0 0 57 60" width="57pt" xmlns="http://www.w3.org/2000/svg"><g fill="#010101"><path d="m30.21 0h.46c.14.28.42.83.56 1.11.77.15 1.55.3 2.32.46.34.62.68 1.24 1.01 1.86.59-.51 1.25-.87 1.98-1.09.03.84.04 1.69.02 2.53 1.9-.5 3.47-1.77 5.16-2.71-.79 1.22-2.37 3.66-3.16 4.88 2.51-1.49 5.01-3.02 7.58-4.42-1.29 1.75-2.68 3.42-4.09 5.07 2.27-1.07 4.62-2.07 7.17-2.21-1.45 1.23-2.91 2.43-4.41 3.59 1.96-.5 3.92-.98 5.91-1.37-1.73 1.29-3.53 2.47-5.36 3.62 2.61-.6 5.29-1.02 7.94-.43-1.31.6-3.95 1.8-5.26 2.4 2.12.04 4.24.1 6.37.18-1.32.59-2.64 1.15-3.97 1.69 2.3 1.13 4.57 2.36 6.56 3.99v.85c-2.23-1.24-4.5-2.4-6.72-3.65 1.55 1.8 3.08 3.63 4.4 5.61-1.67-.9-3.31-1.85-4.94-2.83 3.27 7.81 4.12 16.86 1.1 24.88-2.96 8.19-10.65 14.09-19.01 15.99h-9.9c-7.97-1.9-14.05-8.37-17.02-15.8-1.41.06-2.82.13-4.24.19-.35-2.83-.13-5.67.68-8.4-.47-1.17-.91-2.35-1.35-3.54v-1.25c.25-.54.76-1.62 1.02-2.16.69-.08 2.08-.22 2.78-.3.07-.9.14-1.8.21-2.71-.64.24-1.91.72-2.55.95-.22-.73-.67-2.2-.9-2.93.36-.67 1.07-2.01 1.42-2.67-.45-.33-1.35-.99-1.8-1.31 2.01-1.76 4.23-3.27 6.7-4.3-1.3-.58-2.59-1.18-3.87-1.8 1.51-.12 3.03-.21 4.55-.27-1.65-.64-3.25-1.38-4.8-2.23 2.86.23 5.68.71 8.52 1.11-1.8-1.06-5.39-3.18-7.19-4.24 1.6.37 4.82 1.11 6.42 1.48-.65-1.01-1.29-2.02-1.93-3.04.52-.35 1.56-1.06 2.08-1.41 1.54.64 3.07 1.28 4.61 1.93-.61-.8-1.84-2.39-2.45-3.18 1.23.3 3.7.91 4.93 1.22-.89-.86-2.68-2.57-3.57-3.43 2.6.56 5.17 1.21 7.67 2.11-.03-.81-.11-2.43-.15-3.24 1.51.2 3.02.4 4.53.59-.03.75-.07 2.24-.09 2.99 1.36-1.44 2.72-2.89 4.07-4.36m-17.94 9.23c.55.52.55.52 0 0m10.59 2.31c1.35 2.74 3.21 5.2 4.25 8.09-2.6-1.25-4.22-3.69-5.81-5.98.03 2 .04 3.99.02 5.98-1.68-1.62-1.67-4.06-2.35-6.13-.11 2.26.08 4.52.1 6.78-1.04-1.57-1.75-3.3-2.04-5.16-.43 2.73-1.06 5.42-1.78 8.08-.3-2-.52-4.02-.9-6.01-.59 2.5-.76 5.07-1.04 7.61-1.28-1.98-1.67-4.28-2.09-6.55-.19 2.1-.33 4.21-.47 6.31l-1.35-.1c-.07 2.33-.07 4.66-.22 6.99-.8-1.87-1.56-3.75-2.28-5.64.15 2.2.31 4.4.44 6.61-2.25.73-3.5-2.64-5.47-1.59 0 1.88 1 3.54 1.46 5.32-.67 2.27-1.46 4.54-1.15 6.96 1.79-.86 2.86-2.58 4.17-3.98-.61 5.43 2.9 10.15 6.47 13.87 9.33 9.5 26.92 6.48 33.8-4.48 5.35-7.76 5.48-18.05 2.47-26.73-1-2.48-2.59-4.92-5.11-6.07.58 1.73 1.25 3.44 1.6 5.24-2.17-2.73-4.41-5.4-7.08-7.67l2.71 3.77-.63.69c-1.28-1.33-3.83-4-5.11-5.33l3.54 4.92-1.01.6c-1.69-1.67-3.5-3.2-5.27-4.79l-.69 2.2c.26-.23.79-.68 1.05-.91.88 1.73 1.79 3.46 2.3 5.35-1.78-1.79-5.34-5.36-7.12-7.15 1.29 1.83 3.88 5.48 5.17 7.31-2.42-2.16-4.71-4.46-7.04-6.71 1.28 2.46 3.01 4.87 3.12 7.75-2.4-3.04-3.58-6.95-6.66-9.45z"/><path d="m38.13 24.68c1.73-1.56 3.32-3.26 5.21-4.62-.14 1.91-1.51 3.31-2.09 5.04 3.68-1.18 5.56 2.95 5.57 5.92.41 2.73-.36 5.49-2.65 7.21l1.31 1.18c-2.84.32-4.75-2.81-5.84-5.02 1.35.59 2.65 1.26 3.92 2.02 2.45-1.43 1.89-4.56 1.46-6.91-.19.63-.58 1.9-.77 2.54-1.84-.78-3.82-1.05-5.77-1.41 2.1-.99 4.32-1.68 6.53-2.36-.78-.86-1.56-1.71-2.34-2.57-1.44.96-2.57 2.27-3.63 3.62 2.05-4.23-4.29-2.49-3.43-5.94.63.32 1.89.97 2.52 1.3z"/><path d="m20.09 22.82c2.78-.69 4.85 1.76 7.12 2.88.73-.09 2.18-.26 2.91-.34-.56 1.16-1.51 1.94-2.79 2.24-.53 2.26-.85 4.56-1.69 6.74-1.69-1.34-3.78-1.49-5.84-1.52.37 1.64.45 3.52 1.76 4.75 1.79 1.51 3.45-1.18 5.14-1.66-.56 1.45-1.17 2.88-1.83 4.29-2.23-.51-5.07-.79-5.86-3.39-1.55-4.06-.05-10.17 4.74-11.19-1.25-.89-2.49-1.8-3.66-2.8m2.2 5.03c-.74 1.08-1.37 2.23-1.89 3.43 1.75-.3 3.98.78 5.42-.59.68-1.96-1.83-3.39-3.53-2.84z"/><path d="m30.24 33.99c1.18-1.7 3.16-2.93 5.28-2.46 5.61 1.34 2.38 11.35-2.67 10.23 1.93-2.08 4.67-4.3 4.03-7.49-1.57-2.33-4.52-.34-6.64-.28z"/><path d="m42.48 42.13c-1.54-.58-1.67-1.39-.38-2.43 1.57.59 1.7 1.4.38 2.43z"/><path d="m17.74 40.97c1.55-.6 2.12-.07 1.7 1.6-1.56.61-2.13.07-1.7-1.6z"/><path d="m44.17 42.14c1.48-.59 1.99-.02 1.55 1.73-1.51.59-2.02.02-1.55-1.73z"/><path d="m20.99 43.5c1.15-.84 2.66 1.03 1.47 1.91-1.14.86-2.61-1.06-1.47-1.91z"/><path d="m41.34 43.22c1.28.64 1.29 1.33.02 2.07-1.28-.65-1.29-1.34-.02-2.07z"/><path d="m17.09 44.81c1.64-.21 2.06.43 1.26 1.95-1.68.2-2.1-.45-1.26-1.95z"/><path d="m25.8 51.15c-.84-1.97.09-3.94.95-5.7 1.11 1.12 2.13 2.34 3.39 3.3 1.96.63 3.8-.72 5.65-1.16-.61 2.02-.89 4.45-2.74 5.78-2.34 1.79-6.7 1.01-7.25-2.22m1.79-2.87c-1.58.34-1.32 3.28.26 3.42 1.4-.44 1.33-3.29-.26-3.42m2.57 2.33c-.2.85-.4 1.7-.6 2.55 1.7-.63 3.23-1.6 4.56-2.83-1.32.09-2.64.18-3.96.28z"/></g><path d="m22.86 11.54c3.08 2.5 4.26 6.41 6.66 9.45-.11-2.88-1.84-5.29-3.12-7.75 2.33 2.25 4.62 4.55 7.04 6.71-1.29-1.83-3.88-5.48-5.17-7.31 1.78 1.79 5.34 5.36 7.12 7.15-.51-1.89-1.42-3.62-2.3-5.35-.26.23-.79.68-1.05.91l.69-2.2c1.77 1.59 3.58 3.12 5.27 4.79l1.01-.6-3.54-4.92c1.28 1.33 3.83 4 5.11 5.33l.63-.69-2.71-3.77c2.67 2.27 4.91 4.94 7.08 7.67-.35-1.8-1.02-3.51-1.6-5.24 2.52 1.15 4.11 3.59 5.11 6.07 3.01 8.68 2.88 18.97-2.47 26.73-6.88 10.96-24.47 13.98-33.8 4.48-3.57-3.72-7.08-8.44-6.47-13.87-1.31 1.4-2.38 3.12-4.17 3.98-.31-2.42.48-4.69 1.15-6.96-.46-1.78-1.46-3.44-1.46-5.32 1.97-1.05 3.22 2.32 5.47 1.59-.13-2.21-.29-4.41-.44-6.61.72 1.89 1.48 3.77 2.28 5.64.15-2.33.15-4.66.22-6.99l1.35.1c.14-2.1.28-4.21.47-6.31.42 2.27.81 4.57 2.09 6.55.28-2.54.45-5.11 1.04-7.61.38 1.99.6 4.01.9 6.01.72-2.66 1.35-5.35 1.78-8.08.29 1.86 1 3.59 2.04 5.16-.02-2.26-.21-4.52-.1-6.78.68 2.07.67 4.51 2.35 6.13.02-1.99.01-3.98-.02-5.98 1.59 2.29 3.21 4.73 5.81 5.98-1.04-2.89-2.9-5.35-4.25-8.09m15.27 13.14c-.63-.33-1.89-.98-2.52-1.3-.86 3.45 5.48 1.71 3.43 5.94 1.06-1.35 2.19-2.66 3.63-3.62.78.86 1.56 1.71 2.34 2.57-2.21.68-4.43 1.37-6.53 2.36 1.95.36 3.93.63 5.77 1.41.19-.64.58-1.91.77-2.54.43 2.35.99 5.48-1.46 6.91-1.27-.76-2.57-1.43-3.92-2.02 1.09 2.21 3 5.34 5.84 5.02l-1.31-1.18c2.29-1.72 3.06-4.48 2.65-7.21-.01-2.97-1.89-7.1-5.57-5.92.58-1.73 1.95-3.13 2.09-5.04-1.89 1.36-3.48 3.06-5.21 4.62m-18.04-1.86c1.17 1 2.41 1.91 3.66 2.8-4.79 1.02-6.29 7.13-4.74 11.19.79 2.6 3.63 2.88 5.86 3.39.66-1.41 1.27-2.84 1.83-4.29-1.69.48-3.35 3.17-5.14 1.66-1.31-1.23-1.39-3.11-1.76-4.75 2.06.03 4.15.18 5.84 1.52.84-2.18 1.16-4.48 1.69-6.74 1.28-.3 2.23-1.08 2.79-2.24-.73.08-2.18.25-2.91.34-2.27-1.12-4.34-3.57-7.12-2.88m10.15 11.17c2.12-.06 5.07-2.05 6.64.28.64 3.19-2.1 5.41-4.03 7.49 5.05 1.12 8.28-8.89 2.67-10.23-2.12-.47-4.1.76-5.28 2.46m12.24 8.14c1.32-1.03 1.19-1.84-.38-2.43-1.29 1.04-1.16 1.85.38 2.43m-24.74-1.16c-.43 1.67.14 2.21 1.7 1.6.42-1.67-.15-2.2-1.7-1.6m26.43 1.17c-.47 1.75.04 2.32 1.55 1.73.44-1.75-.07-2.32-1.55-1.73m-23.18 1.36c-1.14.85.33 2.77 1.47 1.91 1.19-.88-.32-2.75-1.47-1.91m20.35-.28c-1.27.73-1.26 1.42.02 2.07 1.27-.74 1.26-1.43-.02-2.07m-24.25 1.59c-.84 1.5-.42 2.15 1.26 1.95.8-1.52.38-2.16-1.26-1.95m8.71 6.34c.55 3.23 4.91 4.01 7.25 2.22 1.85-1.33 2.13-3.76 2.74-5.78-1.85.44-3.69 1.79-5.65 1.16-1.26-.96-2.28-2.18-3.39-3.3-.86 1.76-1.79 3.73-.95 5.7z" fill="#fff"/><path d="m22.29 27.85c1.7-.55 4.21.88 3.53 2.84-1.44 1.37-3.67.29-5.42.59.52-1.2 1.15-2.35 1.89-3.43z" fill="#fff"/><path d="m27.59 48.28c1.59.13 1.66 2.98.26 3.42-1.58-.14-1.84-3.08-.26-3.42z" fill="#fff"/><path d="m30.16 50.61c1.32-.1 2.64-.19 3.96-.28-1.33 1.23-2.86 2.2-4.56 2.83.2-.85.4-1.7.6-2.55z" fill="#fff"/></svg>

<?xml version="1.0" encoding="UTF-8" ?>
<!DOCTYPE svg PUBLIC "-//W3C//DTD SVG 1.1//EN" "http://www.w3.org/Graphics/SVG/1.1/DTD/svg11.dtd">
<svg width="57pt" height="60pt" viewBox="0 0 57 60" version="1.1" xmlns="http://www.w3.org/2000/svg">
<g id="#010101ff">
<path fill="#010101" opacity="1.00" d=" M 30.21 0.00 L 30.67 0.00 C 30.81 0.28 31.09 0.83 31.23 1.11 C 32.00 1.26 32.78 1.41 33.55 1.57 C 33.89 2.19 34.23 2.81 34.56 3.43 C 35.15 2.92 35.81 2.56 36.54 2.34 C 36.57 3.18 36.58 4.03 36.56 4.87 C 38.46 4.37 40.03 3.10 41.72 2.16 C 40.93 3.38 39.35 5.82 38.56 7.04 C 41.07 5.55 43.57 4.02 46.14 2.62 C 44.85 4.37 43.46 6.04 42.05 7.69 C 44.32 6.62 46.67 5.62 49.22 5.48 C 47.77 6.71 46.31 7.91 44.81 9.07 C 46.77 8.57 48.73 8.09 50.72 7.70 C 48.99 8.99 47.19 10.17 45.36 11.32 C 47.97 10.72 50.65 10.30 53.30 10.89 C 51.99 11.49 49.35 12.69 48.04 13.29 C 50.16 13.33 52.28 13.39 54.41 13.47 C 53.09 14.06 51.77 14.62 50.44 15.16 C 52.74 16.29 55.01 17.52 57.00 19.15 L 57.00 20.00 C 54.77 18.76 52.50 17.60 50.28 16.35 C 51.83 18.15 53.36 19.98 54.68 21.96 C 53.01 21.06 51.37 20.11 49.74 19.13 C 53.01 26.94 53.86 35.99 50.84 44.01 C 47.88 52.20 40.19 58.10 31.83 60.00 L 21.93 60.00 C 13.96 58.10 7.88 51.63 4.91 44.20 C 3.50 44.26 2.09 44.33 0.67 44.39 C 0.32 41.56 0.54 38.72 1.35 35.99 C 0.88 34.82 0.44 33.64 0.00 32.45 L 0.00 31.20 C 0.25 30.66 0.76 29.58 1.02 29.04 C 1.71 28.96 3.10 28.82 3.80 28.74 C 3.87 27.84 3.94 26.94 4.01 26.03 C 3.37 26.27 2.10 26.75 1.46 26.98 C 1.24 26.25 0.79 24.78 0.56 24.05 C 0.92 23.38 1.63 22.04 1.98 21.38 C 1.53 21.05 0.63 20.39 0.18 20.07 C 2.19 18.31 4.41 16.80 6.88 15.77 C 5.58 15.19 4.29 14.59 3.01 13.97 C 4.52 13.85 6.04 13.76 7.56 13.70 C 5.91 13.06 4.31 12.32 2.76 11.47 C 5.62 11.70 8.44 12.18 11.28 12.58 C 9.48 11.52 5.89 9.40 4.09 8.34 C 5.69 8.71 8.91 9.45 10.51 9.82 C 9.86 8.81 9.22 7.80 8.58 6.78 C 9.10 6.43 10.14 5.72 10.66 5.37 C 12.20 6.01 13.73 6.65 15.27 7.30 C 14.66 6.50 13.43 4.91 12.82 4.12 C 14.05 4.42 16.52 5.03 17.75 5.34 C 16.86 4.48 15.07 2.77 14.18 1.91 C 16.78 2.47 19.35 3.12 21.85 4.02 C 21.82 3.21 21.74 1.59 21.70 0.78 C 23.21 0.98 24.72 1.18 26.23 1.37 C 26.20 2.12 26.16 3.61 26.14 4.36 C 27.50 2.92 28.86 1.47 30.21 0.00 M 12.27 9.23 C 12.82 9.75 12.82 9.75 12.27 9.23 M 22.86 11.54 C 24.21 14.28 26.07 16.74 27.11 19.63 C 24.51 18.38 22.89 15.94 21.30 13.65 C 21.33 15.65 21.34 17.64 21.32 19.63 C 19.64 18.01 19.65 15.57 18.97 13.50 C 18.86 15.76 19.05 18.02 19.07 20.28 C 18.03 18.71 17.32 16.98 17.03 15.12 C 16.60 17.85 15.97 20.54 15.25 23.20 C 14.95 21.20 14.73 19.18 14.35 17.19 C 13.76 19.69 13.59 22.26 13.31 24.80 C 12.03 22.82 11.64 20.52 11.22 18.25 C 11.03 20.35 10.89 22.46 10.75 24.56 L 9.40 24.46 C 9.33 26.79 9.33 29.12 9.18 31.45 C 8.38 29.58 7.62 27.70 6.90 25.81 C 7.05 28.01 7.21 30.21 7.34 32.42 C 5.09 33.15 3.84 29.78 1.87 30.83 C 1.87 32.71 2.87 34.37 3.33 36.15 C 2.66 38.42 1.87 40.69 2.18 43.11 C 3.97 42.25 5.04 40.53 6.35 39.13 C 5.74 44.56 9.25 49.28 12.82 53.00 C 22.15 62.50 39.74 59.48 46.62 48.52 C 51.97 40.76 52.10 30.47 49.09 21.79 C 48.09 19.31 46.50 16.87 43.98 15.72 C 44.56 17.45 45.23 19.16 45.58 20.96 C 43.41 18.23 41.17 15.56 38.50 13.29 L 41.21 17.06 L 40.58 17.75 C 39.30 16.42 36.75 13.75 35.47 12.42 L 39.01 17.34 L 38.00 17.94 C 36.31 16.27 34.50 14.74 32.73 13.15 L 32.04 15.35 C 32.30 15.12 32.83 14.67 33.09 14.44 C 33.97 16.17 34.88 17.90 35.39 19.79 C 33.61 18.00 30.05 14.43 28.27 12.64 C 29.56 14.47 32.15 18.12 33.44 19.95 C 31.02 17.79 28.73 15.49 26.40 13.24 C 27.68 15.70 29.41 18.11 29.52 20.99 C 27.12 17.95 25.94 14.04 22.86 11.54 Z" />
<path fill="#010101" opacity="1.00" d=" M 38.13 24.68 C 39.86 23.12 41.45 21.42 43.34 20.06 C 43.20 21.97 41.83 23.37 41.25 25.10 C 44.93 23.92 46.81 28.05 46.82 31.02 C 47.23 33.75 46.46 36.51 44.17 38.23 L 45.48 39.41 C 42.64 39.73 40.73 36.60 39.64 34.39 C 40.99 34.98 42.29 35.65 43.56 36.41 C 46.01 34.98 45.45 31.85 45.02 29.50 C 44.83 30.13 44.44 31.40 44.25 32.04 C 42.41 31.26 40.43 30.99 38.48 30.63 C 40.58 29.64 42.80 28.95 45.01 28.27 C 44.23 27.41 43.45 26.56 42.67 25.70 C 41.23 26.66 40.10 27.97 39.04 29.32 C 41.09 25.09 34.75 26.83 35.61 23.38 C 36.24 23.70 37.50 24.35 38.13 24.68 Z" />
<path fill="#010101" opacity="1.00" d=" M 20.09 22.82 C 22.87 22.13 24.94 24.58 27.21 25.70 C 27.94 25.61 29.39 25.44 30.12 25.36 C 29.56 26.52 28.61 27.30 27.33 27.60 C 26.80 29.86 26.48 32.16 25.64 34.34 C 23.95 33.00 21.86 32.85 19.80 32.82 C 20.17 34.46 20.25 36.34 21.56 37.57 C 23.35 39.08 25.01 36.39 26.70 35.91 C 26.14 37.36 25.53 38.79 24.87 40.20 C 22.64 39.69 19.80 39.41 19.01 36.81 C 17.46 32.75 18.96 26.64 23.75 25.62 C 22.50 24.73 21.26 23.82 20.09 22.82 M 22.29 27.85 C 21.55 28.93 20.92 30.08 20.40 31.28 C 22.15 30.98 24.38 32.06 25.82 30.69 C 26.50 28.73 23.99 27.30 22.29 27.85 Z" />
<path fill="#010101" opacity="1.00" d=" M 30.24 33.99 C 31.42 32.29 33.40 31.06 35.52 31.53 C 41.13 32.87 37.90 42.88 32.85 41.76 C 34.78 39.68 37.52 37.46 36.88 34.27 C 35.31 31.94 32.36 33.93 30.24 33.99 Z" />
<path fill="#010101" opacity="1.00" d=" M 42.48 42.13 C 40.94 41.55 40.81 40.74 42.10 39.70 C 43.67 40.29 43.80 41.10 42.48 42.13 Z" />
<path fill="#010101" opacity="1.00" d=" M 17.74 40.97 C 19.29 40.37 19.86 40.90 19.44 42.57 C 17.88 43.18 17.31 42.64 17.74 40.97 Z" />
<path fill="#010101" opacity="1.00" d=" M 44.17 42.14 C 45.65 41.55 46.16 42.12 45.72 43.87 C 44.21 44.46 43.70 43.89 44.17 42.14 Z" />
<path fill="#010101" opacity="1.00" d=" M 20.99 43.50 C 22.14 42.66 23.65 44.53 22.46 45.41 C 21.32 46.27 19.85 44.35 20.99 43.50 Z" />
<path fill="#010101" opacity="1.00" d=" M 41.34 43.22 C 42.62 43.86 42.63 44.55 41.36 45.29 C 40.08 44.64 40.07 43.95 41.34 43.22 Z" />
<path fill="#010101" opacity="1.00" d=" M 17.09 44.81 C 18.73 44.60 19.15 45.24 18.35 46.76 C 16.67 46.96 16.25 46.31 17.09 44.81 Z" />
<path fill="#010101" opacity="1.00" d=" M 25.80 51.15 C 24.96 49.18 25.89 47.21 26.75 45.45 C 27.86 46.57 28.88 47.79 30.14 48.75 C 32.10 49.38 33.94 48.03 35.79 47.59 C 35.18 49.61 34.90 52.04 33.05 53.37 C 30.71 55.16 26.35 54.38 25.80 51.15 M 27.59 48.28 C 26.01 48.62 26.27 51.56 27.85 51.70 C 29.25 51.26 29.18 48.41 27.59 48.28 M 30.16 50.61 C 29.96 51.46 29.76 52.31 29.56 53.16 C 31.26 52.53 32.79 51.56 34.12 50.33 C 32.80 50.42 31.48 50.51 30.16 50.61 Z" />
</g>
<g id="#ffffffff">
<path fill="#ffffff" opacity="1.00" d=" M 22.86 11.54 C 25.94 14.04 27.12 17.95 29.52 20.99 C 29.41 18.11 27.68 15.70 26.40 13.24 C 28.73 15.49 31.02 17.79 33.44 19.95 C 32.15 18.12 29.56 14.47 28.27 12.64 C 30.05 14.43 33.61 18.00 35.39 19.79 C 34.88 17.90 33.97 16.17 33.09 14.44 C 32.83 14.67 32.30 15.12 32.04 15.35 L 32.73 13.15 C 34.50 14.74 36.31 16.27 38.00 17.94 L 39.01 17.34 L 35.47 12.42 C 36.75 13.75 39.30 16.42 40.58 17.75 L 41.21 17.06 L 38.50 13.29 C 41.17 15.56 43.41 18.23 45.58 20.96 C 45.23 19.16 44.56 17.45 43.98 15.72 C 46.50 16.87 48.09 19.31 49.09 21.79 C 52.10 30.47 51.97 40.76 46.62 48.52 C 39.74 59.48 22.15 62.50 12.82 53.00 C 9.25 49.28 5.74 44.56 6.35 39.13 C 5.04 40.53 3.97 42.25 2.18 43.11 C 1.87 40.69 2.66 38.42 3.33 36.15 C 2.87 34.37 1.87 32.71 1.87 30.83 C 3.84 29.78 5.09 33.15 7.34 32.42 C 7.21 30.21 7.05 28.01 6.90 25.81 C 7.62 27.70 8.38 29.58 9.18 31.45 C 9.33 29.12 9.33 26.79 9.40 24.46 L 10.75 24.56 C 10.89 22.46 11.03 20.35 11.22 18.25 C 11.64 20.52 12.03 22.82 13.31 24.80 C 13.59 22.26 13.76 19.69 14.35 17.19 C 14.73 19.18 14.95 21.20 15.25 23.20 C 15.97 20.54 16.60 17.85 17.03 15.12 C 17.32 16.98 18.03 18.71 19.07 20.28 C 19.05 18.02 18.86 15.76 18.97 13.50 C 19.65 15.57 19.64 18.01 21.32 19.63 C 21.34 17.64 21.33 15.65 21.30 13.65 C 22.89 15.94 24.51 18.38 27.11 19.63 C 26.07 16.74 24.21 14.28 22.86 11.54 M 38.13 24.68 C 37.50 24.35 36.24 23.70 35.61 23.38 C 34.75 26.83 41.09 25.09 39.04 29.32 C 40.10 27.97 41.23 26.66 42.67 25.70 C 43.45 26.56 44.23 27.41 45.01 28.27 C 42.80 28.95 40.58 29.64 38.48 30.63 C 40.43 30.99 42.41 31.26 44.25 32.04 C 44.44 31.40 44.83 30.13 45.02 29.50 C 45.45 31.85 46.01 34.98 43.56 36.41 C 42.29 35.65 40.99 34.98 39.64 34.39 C 40.73 36.60 42.64 39.73 45.48 39.41 L 44.17 38.23 C 46.46 36.51 47.23 33.75 46.82 31.02 C 46.81 28.05 44.93 23.92 41.25 25.10 C 41.83 23.37 43.20 21.97 43.34 20.06 C 41.45 21.42 39.86 23.12 38.13 24.68 M 20.09 22.82 C 21.26 23.82 22.50 24.73 23.75 25.62 C 18.96 26.64 17.46 32.75 19.01 36.81 C 19.80 39.41 22.64 39.69 24.87 40.20 C 25.53 38.79 26.14 37.36 26.70 35.91 C 25.01 36.39 23.35 39.08 21.56 37.57 C 20.25 36.34 20.17 34.46 19.80 32.82 C 21.86 32.85 23.95 33.00 25.64 34.34 C 26.48 32.16 26.80 29.86 27.33 27.60 C 28.61 27.30 29.56 26.52 30.12 25.36 C 29.39 25.44 27.94 25.61 27.21 25.70 C 24.94 24.58 22.87 22.13 20.09 22.82 M 30.24 33.99 C 32.36 33.93 35.31 31.94 36.88 34.27 C 37.52 37.46 34.78 39.68 32.85 41.76 C 37.90 42.88 41.13 32.87 35.52 31.53 C 33.40 31.06 31.42 32.29 30.24 33.99 M 42.48 42.13 C 43.80 41.10 43.67 40.29 42.10 39.70 C 40.81 40.74 40.94 41.55 42.48 42.13 M 17.74 40.97 C 17.31 42.64 17.88 43.18 19.44 42.57 C 19.86 40.90 19.29 40.37 17.74 40.97 M 44.17 42.14 C 43.70 43.89 44.21 44.46 45.72 43.87 C 46.16 42.12 45.65 41.55 44.17 42.14 M 20.99 43.50 C 19.85 44.35 21.32 46.27 22.46 45.41 C 23.65 44.53 22.14 42.66 20.99 43.50 M 41.34 43.22 C 40.07 43.95 40.08 44.64 41.36 45.29 C 42.63 44.55 42.62 43.86 41.34 43.22 M 17.09 44.81 C 16.25 46.31 16.67 46.96 18.35 46.76 C 19.15 45.24 18.73 44.60 17.09 44.81 M 25.80 51.15 C 26.35 54.38 30.71 55.16 33.05 53.37 C 34.90 52.04 35.18 49.61 35.79 47.59 C 33.94 48.03 32.10 49.38 30.14 48.75 C 28.88 47.79 27.86 46.57 26.75 45.45 C 25.89 47.21 24.96 49.18 25.80 51.15 Z" />
<path fill="#ffffff" opacity="1.00" d=" M 22.29 27.85 C 23.99 27.30 26.50 28.73 25.82 30.69 C 24.38 32.06 22.15 30.98 20.40 31.28 C 20.92 30.08 21.55 28.93 22.29 27.85 Z" />
<path fill="#ffffff" opacity="1.00" d=" M 27.59 48.28 C 29.18 48.41 29.25 51.26 27.85 51.70 C 26.27 51.56 26.01 48.62 27.59 48.28 Z" />
<path fill="#ffffff" opacity="1.00" d=" M 30.16 50.61 C 31.48 50.51 32.80 50.42 34.12 50.33 C 32.79 51.56 31.26 52.53 29.56 53.16 C 29.76 52.31 29.96 51.46 30.16 50.61 Z" />
</g>
</svg>
